X: 42321
T: Wee Hours
R: jig
M: 6/8
K: Dmajor
|:e|~f3 dBA|BdB AFA|fef dBA|Bed ~e3|
def dBA|BdB AFA|~B3 dBA|Fdc d2:|
|:E|~F3 Bdf|bfe fdB|AFA Bef|ged edB|
FGA Bdf|bfe fdB|~f3 dBA|Bdc d2:|

